!!!COM: Music21
!!!OTL: march_Dark-Room-Fiddler--The
!!!OMV: march_Dark-Room-Fiddler--The
**kern
*clefG2
*k[b-]
*M4/4
=1
4dd
4g
4ff
8eeL
8ffJ
=
4dd
4g
8aL
8b-J
8aL
8gJ
=
4a
4f
4a
4b-
=
4f
4a
8b-L
8aJ
8gL
8b-J
=
4dd
4g
4ff
8eeL
8ffJ
=
4dd
4g
8aL
8b-J
8aL
8gJ
=
4a
4f
4cc
4b-
!!linebreak:original
=
4a
4g
8gL
8aJ
8b-L
8ccJ
=||
*M4/4
4dd
4g
4ff
8eeL
8ffJ
=
4dd
4g
8aL
8b-J
8aL
8gJ
=
4a
4f
4a
4b-
=
4f
4a
8b-L
8aJ
8gL
8b-J
=
4dd
4g
4ff
8eeL
8ffJ
=
4dd
4g
8aL
8b-J
8aL
8gJ
!!linebreak:original
=
4a
4f
4cc
4b-
=
4a
4g
8gL
8aJ
8gL
8fJ
=||
4d
4g
4a
4b-
=
4d
4g
4a
4b-
=
4c
4e
4.f
8g
=
4.a
8b-
8aL
8gJ
8fL
8eJ
=
4d
4g
4b-
4dd
=
4cc
8aL
8b-J
4cc
8aL
8b-J
!!linebreak:original
=
4cc
4g
4.a
8b-
=
4a
4g
8gL
8aJ
8gL
8fJ
=||
4d
4g
4a
4b-
=
4d
4g
4a
4b-
=
4c
4e
4.f
8g
=
4.a
8b-
8aL
8gJ
8fL
8eJ
=
4d
4g
4b-
4dd
!!linebreak:original
=
4cc
8aL
8b-J
4cc
8aL
8b-J
=
4cc
4g
4.a
8b-
=
4a
4g
8gL
8aJ
8b-L
8ccJ
=||
*-
